X:3332
T:KNDDEAR2- The Lee Rigg
O:england
S:Oswald's CPC, bk. 8, c 1756.
Q:1/4=120
L:1/4
M:C|
K:A
~c3/4B/4|AEEF|A2Ac|~B3/2A/Bc|AFFc/B/|AEEF|A2Aa|\
~f2a/f/e/c/|eAA::e|f3/2a/fe/c/|e3/2f/ e/c/B/A/|\
B3/2c/ e/c/B/c/|AFF~c/B/|AF/E/EF|A3/2B/ c/B/c/e/|\
f2a/f/e/c/|eAA:|]
